X: 21
M: C|
L: 1/8
K: G
d2d2 d2d2 | e2d2 g2d2 | e2d2 g2d2 | Tc2B2 GABc |\
d2d2 d2d2 | e2d2 g2d2 | c2BA GABc | d4 :|
|: defg |\
a2d2 b2d2 | Td2^c2 a2=c2 | Tc2B2 g2B2 | TB2A2 DEFG |\


